static/assets/img/icons/theme/shopping/barcode.svg

<svg height="24" viewBox="0 0 24 24" width="24" xmlns="http://www.w3.org/2000/svg"><g fill="none" fill-rule="evenodd"><path d="m0 0h24v24h-24z" opacity="0"/><g fill="#000"><path d="m13 5h2v15h-2zm-8 0v15h-2c-.55228475 0-1-.4477153-1-1v-13c0-.55228475.44771525-1 1-1zm11 0h2v15h-2zm4 0h1c.5522847 0 1 .44771525 1 1v13c0 .5522847-.4477153 1-1 1h-1z"/><path d="m9 5v15h-2v-15z" opacity=".3"/></g></g></svg>

<svg width="24px" height="24px" viewBox="0 0 24 24" version="1.1" xmlns="http://www.w3.org/2000/svg" xmlns:xlink="http://www.w3.org/1999/xlink">
    <title>Icon For Barcode</title>
    <g stroke="none" stroke-width="1" fill="none" fill-rule="evenodd">
        <rect opacity="0" x="0" y="0" width="24" height="24"></rect>
        <path d="M13,5 L15,5 L15,20 L13,20 L13,5 Z M5,5 L5,20 L3,20 C2.44771525,20 2,19.5522847 2,19 L2,6 C2,5.44771525 2.44771525,5 3,5 L5,5 Z M16,5 L18,5 L18,20 L16,20 L16,5 Z M20,5 L21,5 C21.5522847,5 22,5.44771525 22,6 L22,19 C22,19.5522847 21.5522847,20 21,20 L20,20 L20,5 Z" fill="#000000"></path>
        <polygon fill="#000000" opacity="0.3" points="9 5 9 20 7 20 7 5"></polygon>
    </g>
</svg>
